!!!COM: Haydn, Franz Joseph
!!!OPR: Symphony in G Major
!!!OTL: Affettuoso 
!!!OMV: 3
!!!SCT: H I:92
!!!SCA: Thematisch-bibliographisches Werkevererzeichnis (A. van Hoboken)
!!!YOR: Dover Edition
!!!EED: Frances Bennion
!!!ENC: Frances Bennion
!!!CDT: 1732/3/31/-1809/5/31/
!!!OCY: Österreich
!!!YEC: Copyright (c) 1994, 2000 Center for Computer Assisted Research in the Humanities
!!!YEM: Rights to all derivative editions reserved.
!!!YEM: Refer to licensing agreement for further details.
!!!YEN: United States of America
**kern	**kern	**kern	**kern	**kern	**kern	**kern	**kern	**kern	**kern	**kern	**kern	**kern	**kern	**kern
*k[f#]	*k[]	*k[f#]	*k[f#]	*k[f#]	*k[f#]	*k[f#]	*k[f#]	*k[f#]	*k[f#]	*k[f#]	*k[]	*k[]	*k[]	*k[]
*G:	*G:	*G:	*G:	*G:	*G:	*G:	*G:	*G:	*G:	*G:	*G:	*G:	*G:	*G:
*clefF	*clefF4	*clefF	*clefF	*clefC3	*clefF4	*clefF4	*clefF	*clefF	*clefF4	*clefF4	*clefF	*clefF	*clefF	*clefF
*M3/4	*M3/4	*M3/4	*M3/4	*M3/4	*M3/4	*M3/4	*M3/4	*M3/4	*M3/4	*M3/4	*M3/4	*M3/4	*M3/4	*M3/4
*tb16	*tb16	*tb16	*tb16	*tb16	*tb16	*tb16	*tb16	*tb16	*tb16	*tb16	*tb16	*tb16	*tb16	*tb16
=0-	=0-	=0-	=0-	=0-	=0-	=0-	=0-	=0-	=0-	=0-	=0-	=0-	=0-	=0-
2r	2r	2r	2r	2r	2r	2r	2r	2r	2r	2r	2r	2r	2r	2r
4r	4r	8b	8g	4r	4r	4r	8b	8g	4r	4r	4r	4r	4r	4r
.	.	8cc	8a	.	.	.	8cc	8a	.	.	.	.	.	.
=1	=1	=1	=1	=1	=1	=1	=1	=1	=1	=1	=1	=1	=1	=1
2.r	4GG	4dd	4b	2d	2GG	2GG	4dd	4b	2GG	2GG	2ee	2cc	2dd	2g
.	4r	4bb	4dd	.	.	.	4bb	4dd	.	.	.	.	.	.
.	4D	8aa	8cc	4d	4D	4D	8aa	8cc	4D	4D	4dd	4g	4dd	4dd
.	.	8ff#	8a	.	.	.	8ff#	8a	.	.	.	.	.	.
=2	=2	=2	=2	=2	=2	=2	=2	=2	=2	=2	=2	=2	=2	=2
2r	4GG	4gg	4b	4d	4G	4G	4gg	4b	4G	4G	4cc	4e	4dd	4g
.	2r	4dd	4r	4r	2r	2r	4dd	2r	4r	2r	2r	2r	2r	2r
4ddd	.	4ddd	4bb	8G	.	.	4r	.	8G	.	.	.	.	.
.	.	.	.	8A	.	.	.	.	8A	.	.	.	.	.
=3	=3	=3	=3	=3	=3	=3	=3	=3	=3	=3	=3	=3	=3	=3
4ddd	2.r	4ddd	4bb	8B	2.r	2.r	2r	2.r	8B	2.r	2.r	2.r	2.r	2.r
.	.	.	.	8c	.	.	.	.	8c	.	.	.	.	.
4ddd	.	4ddd	4bb	8d	.	.	.	.	8d	.	.	.	.	.
.	.	.	.	8e	.	.	.	.	8e	.	.	.	.	.
8ccc	.	8ccc	8aa	8f#	.	.	4d	.	8f#	.	.	.	.	.
16bb	.	16bb	16gg	8d	.	.	.	.	8d	.	.	.	.	.
16ccc	.	16ccc	16aa	.	.	.	.	.	.	.	.	.	.	.
=4	=4	=4	=4	=4	=4	=4	=4	=4	=4	=4	=4	=4	=4	=4
4bb	2.r	4bb	4gg	8g	2.r	2.r	8g	2.r	4g	2.r	2.r	2.r	2.r	2.r
.	.	.	.	8f#	.	.	8f#	.	.	.	.	.	.	.
4r	.	4r	4r	8g	.	.	8g	.	2r	.	.	.	.	.
.	.	.	.	8a	.	.	8a	.	.	.	.	.	.	.
4bb	.	4bb	4dd	8b	.	.	8b	.	.	.	.	.	.	.
.	.	.	.	8g	.	.	8g	.	.	.	.	.	.	.
=5	=5	=5	=5	=5	=5	=5	=5	=5	=5	=5	=5	=5	=5	=5
8aa	2.r	8aa	2.ee	2cc	2.r	2.r	2cc	2.r	2.r	2.r	2.r	2.r	2.r	2.r
8bb	.	8bb	.	.	.	.	.	.	.	.	.	.	.	.
8ccc	.	8ccc	.	.	.	.	.	.	.	.	.	.	.	.
8bb	.	8bb	.	.	.	.	.	.	.	.	.	.	.	.
8aa	.	8aa	.	4cc#	.	.	4cc#	.	.	.	.	.	.	.
8gg	.	8gg	.	.	.	.	.	.	.	.	.	.	.	.
=6	=6	=6	=6	=6	=6	=6	=6	=6	=6	=6	=6	=6	=6	=6
8gg	2.r	8gg	4dd	4dd	2.r	2.r	4dd	2r	2.r	2.r	2.r	2.r	2.r	2.r
8ff#	.	8ff#	.	.	.	.	.	.	.	.	.	.	.	.
8ee	.	8ee	4r	2r	.	.	4r	.	.	.	.	.	.	.
8dd	.	8dd	.	.	.	.	.	.	.	.	.	.	.	.
4r	.	8b	8g	.	.	.	8b	8g	.	.	.	.	.	.
.	.	8cc	8a	.	.	.	8cc	8a	.	.	.	.	.	.
=7	=7	=7	=7	=7	=7	=7	=7	=7	=7	=7	=7	=7	=7	=7
2.r	4GG	4dd	4b	2d	2GG	2GG	4dd	4b	2GG	2GG	2ee	2cc	2dd	2g
.	4r	4bb	4dd	.	.	.	4bb	4dd	.	.	.	.	.	.
.	4D	8aa	8cc	4d	4D	4D	8aa	8cc	4D	4D	4dd	4g	4dd	4dd
.	.	8ff#	8a	.	.	.	8ff#	8a	.	.	.	.	.	.
=8	=8	=8	=8	=8	=8	=8	=8	=8	=8	=8	=8	=8	=8	=8
2r	4GG	4gg	4b	4d	4G	4G	4gg	4b	4G	4G	4cc	4e	4dd	4g
.	2r	4dd	2r	2r	2r	2r	4dd	2r	2r	2r	2r	2r	2r	2r
8bb	.	8bb	.	.	.	.	4r	.	.	.	.	.	.	.
8aa	.	8aa	.	.	.	.	.	.	.	.	.	.	.	.
=9	=9	=9	=9	=9	=9	=9	=9	=9	=9	=9	=9	=9	=9	=9
8gg	4GG	8gg	2.e 2.c#	[2.a	2A	2A	2gg	2.cc#	2A	2A	2.r	2.r	2.g	2.g
8ff#	.	8ff#	.	.	.	.	.	.	.	.	.	.	.	.
8ee	2r	8ee	.	.	.	.	.	.	.	.	.	.	.	.
8dd	.	8dd	.	.	.	.	.	.	.	.	.	.	.	.
8cc#	.	8cc#	.	.	4G	4G	4ee	.	4G	4G	.	.	.	.
8ee	.	8ee	.	.	.	.	.	.	.	.	.	.	.	.
=10	=10	=10	=10	=10	=10	=10	=10	=10	=10	=10	=10	=10	=10	=10
8dd	4D	8dd	8d	4a]	4F#	4F#	2ff#	2.dd	4F#	4F#	2.r	2.r	4dd	4dd
8ee	.	8ee	8e	.	.	.	.	.	.	.	.	.	.	.
8ff#	2r	8ff#	8f#	2r	2r	2r	.	.	2r	2r	.	.	2r	2r
8gg	.	8gg	8g	.	.	.	.	.	.	.	.	.	.	.
8aa	.	8aa	8a	.	.	.	8ff#	.	.	.	.	.	.	.
8bb	.	8bb	8b	.	.	.	8gg	.	.	.	.	.	.	.
=11	=11	=11	=11	=11	=11	=11	=11	=11	=11	=11	=11	=11	=11	=11
8ccc#	2.r	8ccc#	8cc#	4f#	4F#	4F#	4aa	2dd	4F#	4F#	4dd	4dd	2.r	2.r
8ddd	.	8ddd	8dd	.	.	.	.	.	.	.	.	.	.	.
8bb	.	8bb	8b	4g	4G	4G	4bb	.	4G	4G	4ee	4cc	.	.
8gg	.	8gg	8g	.	.	.	.	.	.	.	.	.	.	.
8ee	.	8ee	8e	4a	4A	4A	4ccc#	8gg	4A	4A	4dd	4dd	.	.
8cc#	.	8cc#	8c#	.	.	.	.	8ee	.	.	.	.	.	.
=12	=12	=12	=12	=12	=12	=12	=12	=12	=12	=12	=12	=12	=12	=12
4dd	4D	4dd	4d	4d	4D	4D	4ddd	4dd	4D	4D	4dd	4g	4dd	4dd
4r	4r	4r	4r	4r	4r	4r	4r	4r	4r	4r	4r	4r	4r	4r
4ddd	4D	4ddd	4dd	8D	8D	8D	4dd	4r	8D	8D	4g	4g	4dd	4dd
.	.	.	.	8E	8E	8E	.	.	8E	8E	.	.	.	.
=13	=13	=13	=13	=13	=13	=13	=13	=13	=13	=13	=13	=13	=13	=13
4ddd	4D	4ddd	4dd	8F#	8F#	8F#	4dd	2.r	8F#	8F#	4g	4g	4dd	4dd
.	.	.	.	8G	8G	8G	.	.	8G	8G	.	.	.	.
4ddd	4D	4ddd	4dd	8A	8A	8A	4dd	.	8A	8A	4g	4g	4dd	4dd
.	.	.	.	8B-	8B-	8B-	.	.	8B-	8B-	.	.	.	.
[4ddd	4D	[4ddd	4dd	8c	8c	8c	[4dd	.	8c	8c	4g	4g	4dd	4dd
.	.	.	.	8d	8d	8d	.	.	8d	8d	.	.	.	.
=14	=14	=14	=14	=14	=14	=14	=14	=14	=14	=14	=14	=14	=14	=14
4ddd]	4GG	4ddd]	2.gg	2.e-	2.e-	2.e-	4dd]	2.g	2.e-	2.e-	2cc	2cc	4dd	4dd
4ccc	2r	4ccc	.	.	.	.	4cc	.	.	.	.	.	2r	2r
[4ccc	.	[4ccc	.	.	.	.	[4cc	.	.	.	4r	4r	.	.
=15	=15	=15	=15	=15	=15	=15	=15	=15	=15	=15	=15	=15	=15	=15
4ccc]	2.r	4ccc]	2.ff	2.d	2.d	2.d	4cc]	2.f	2.d	2.d	2.r	2.r	2.r	2.r
4bb-	.	4bb-	.	.	.	.	4b-	.	.	.	.	.	.	.
[4bb-	.	[4bb-	.	.	.	.	[4b-	.	.	.	.	.	.	.
=16	=16	=16	=16	=16	=16	=16	=16	=16	=16	=16	=16	=16	=16	=16
4bb-]	2.r	4bb-]	2ee-	2c	2c	2c	4b-]	2e-	2c	2c	2.r	2.r	2.r	2.r
4aa	.	4aa	.	.	.	.	4a	.	.	.	.	.	.	.
4r	.	4r	4r	4r	4r	4r	4r	4r	4r	4r	.	.	.	.
=17	=17	=17	=17	=17	=17	=17	=17	=17	=17	=17	=17	=17	=17	=17
2.r	2.r	2.r	2.r	2.r	2.r	2.r	2.r	2.r	2.r	2.r	2.r	2.r	2.r	2.r
=18	=18	=18	=18	=18	=18	=18	=18	=18	=18	=18	=18	=18	=18	=18
2.r	2.r	2r	2r	2r	2r	2.r	2.r	2.r	2.r	2.r	2.r	2.r	2.r	2.r
.	.	4gg	4g	8G	8G	.	.	.	.	.	.	.	.	.
.	.	.	.	8A	8A	.	.	.	.	.	.	.	.	.
=19	=19	=19	=19	=19	=19	=19	=19	=19	=19	=19	=19	=19	=19	=19
2.r	2.r	4gg	4g	8B	8B	2.r	2.r	2.r	2.r	2.r	2.r	2.r	2.r	2.r
.	.	.	.	8c	8c	.	.	.	.	.	.	.	.	.
.	.	4gg	4g	8d	8d	.	.	.	.	.	.	.	.	.
.	.	.	.	8e-	8e-	.	.	.	.	.	.	.	.	.
.	.	[4gg	4g	8f	8f	.	.	.	.	.	.	.	.	.
.	.	.	.	8g	8g	.	.	.	.	.	.	.	.	.
=20	=20	=20	=20	=20	=20	=20	=20	=20	=20	=20	=20	=20	=20	=20
2.r	2.r	4gg]	2.cc	2.a-	2.a-	2.r	2.r	2.r	2.r	2.r	2.r	2.r	2.r	2.r
.	.	4ff	.	.	.	.	.	.	.	.	.	.	.	.
.	.	[4ff	.	.	.	.	.	.	.	.	.	.	.	.
=21	=21	=21	=21	=21	=21	=21	=21	=21	=21	=21	=21	=21	=21	=21
2.r	2.r	4ff]	2b-	2g	2g	2.r	2.r	2.r	2.r	2.r	2.r	2.r	2.r	2.r
.	.	4ee	.	.	.	.	.	.	.	.	.	.	.	.
.	.	[4bb-	4g	4e	4e	.	.	.	.	.	.	.	.	.
=22	=22	=22	=22	=22	=22	=22	=22	=22	=22	=22	=22	=22	=22	=22
2.r	2.r	4bb-]	4f	2f	2f	2.r	2.r	2.r	2.r	2.r	2.r	2.r	2.r	2.r
.	.	4aa-	4cc	.	.	.	.	.	.	.	.	.	.	.
.	.	[4gg	4cc#	4e-	4e-	.	.	.	.	.	.	.	.	.
=23	=23	=23	=23	=23	=23	=23	=23	=23	=23	=23	=23	=23	=23	=23
2r	2.r	4gg]	4dd	4d	[2.d	2.r	2.r	2r	2.r	2.r	2r	2r	2.r	2.r
.	.	4ff#	4r	4d	.	.	.	.	.	.	.	.	.	.
4ddd	.	8f#	8d	4d	.	.	.	4dd	.	.	4g	4G	.	.
.	.	8g	8e	.	.	.	.	.	.	.	.	.	.	.
=24	=24	=24	=24	=24	=24	=24	=24	=24	=24	=24	=24	=24	=24	=24
4ddd	2.r	8a	8f#	4d	2.d_	2.r	2.r	4dd	2.r	2.r	4g	4G	2.r	2.r
.	.	8b-	8g	.	.	.	.	.	.	.	.	.	.	.
4ddd	.	8cc	8a	4d	.	.	.	4dd	.	.	4g	4G	.	.
.	.	8b-	8b-	.	.	.	.	.	.	.	.	.	.	.
4ddd	.	8cc	8cc	4d	.	.	.	4dd	.	.	4g	4G	.	.
.	.	8a	8a	.	.	.	.	.	.	.	.	.	.	.
=25	=25	=25	=25	=25	=25	=25	=25	=25	=25	=25	=25	=25	=25	=25
4bb-	2.r	2.b-	2.g	2.d	2.d_	2.r	2.r	4b-	2.r	2.r	2g	2G	2.r	2.r
4gg	.	.	.	.	.	.	.	4g	.	.	.	.	.	.
8eee-	.	.	.	.	.	.	.	8ee-	.	.	4g	4G	.	.
8ddd	.	.	.	.	.	.	.	8dd	.	.	.	.	.	.
=26	=26	=26	=26	=26	=26	=26	=26	=26	=26	=26	=26	=26	=26	=26
8ccc	2.r	2.cc	2.a	4d	2.d_	2.r	2.r	8cc	2.r	2.r	4g	4G	2.r	2.r
8bb-	.	.	.	.	.	.	.	8b-	.	.	.	.	.	.
8aa	.	.	.	4d	.	.	.	8a	.	.	4g	4G	.	.
8gg	.	.	.	.	.	.	.	8g	.	.	.	.	.	.
8ff#	.	.	.	4d	.	.	.	8f#	.	.	4g	4G	.	.
8aa	.	.	.	.	.	.	.	8a	.	.	.	.	.	.
=27	=27	=27	=27	=27	=27	=27	=27	=27	=27	=27	=27	=27	=27	=27
4gg	2.r	2dd	2b-	2.d	2.d_	2.r	2r	4g	2.r	2.r	4g	4G	2.r	2.r
4gg	.	.	.	.	.	.	.	4g	.	.	4g	4G	.	.
8bb-	.	8g	4d	.	.	.	8bb-	4r	.	.	4r	4r	.	.
8aa	.	8a	.	.	.	.	8aa	.	.	.	.	.	.	.
=28	=28	=28	=28	=28	=28	=28	=28	=28	=28	=28	=28	=28	=28	=28
8gg	2.r	2.b-	2.g	4d	2.d_	2.r	8gg	2.r	2.r	2.r	4g	4G	2.r	2.r
8ff	.	.	.	.	.	.	8ff	.	.	.	.	.	.	.
8ee-	.	.	.	4d	.	.	8ee-	.	.	.	4g	4G	.	.
8dd	.	.	.	.	.	.	8dd	.	.	.	.	.	.	.
8ee-	.	.	.	4d	.	.	8ee-	.	.	.	4g	4G	.	.
8cc#	.	.	.	.	.	.	8cc#	.	.	.	.	.	.	.
=29	=29	=29	=29	=29	=29	=29	=29	=29	=29	=29	=29	=29	=29	=29
4dd	2.r	2.a	2.f#	4d	2.d_	4D	4dd	2.r	2.A	2.F#	4g	4G	2.r	2.r
4dd	.	.	.	4d	.	2r	4dd	.	.	.	4g	4G	.	.
8aa	.	.	.	4r	.	.	8aa	.	.	.	4r	4r	.	.
8ff#	.	.	.	.	.	.	8ff#	.	.	.	.	.	.	.
=30	=30	=30	=30	=30	=30	=30	=30	=30	=30	=30	=30	=30	=30	=30
4dd	2.r	2.b-	2.g	4d	2.d_	4D	4dd	2.r	2.B-	2.G	4g	4G	2.r	2.r
4dd	.	.	.	4d	.	2r	4dd	.	.	.	4g	4G	.	.
8bb-	.	.	.	4d	.	.	8bb-	.	.	.	4r	4r	.	.
8gg	.	.	.	.	.	.	8gg	.	.	.	.	.	.	.
=31	=31	=31	=31	=31	=31	=31	=31	=31	=31	=31	=31	=31	=31	=31
4dd	2.r	2cc	2a	4d	2.d_	4D	4dd	2.r	2c	2A	4g	4G	2.r	2.r
4dd	.	.	.	4d	.	2r	4dd	.	.	.	4g	4G	.	.
8ccc#	.	4b-	4g	4d	.	.	8ccc#	.	4B-	4G	4r	4r	.	.
8ddd	.	.	.	.	.	.	8ddd	.	.	.	.	.	.	.
=32	=32	=32	=32	=32	=32	=32	=32	=32	=32	=32	=32	=32	=32	=32
4dd	2.r	4a	4f#	4d	4d]	4D	4dd	2r	4A	4F#	4g	4G	2.r	2.r
4dd	.	4r	4r	2r	2r	2r	4dd	.	2r	2r	4g	4G	.	.
4r	.	8b	8g	.	.	.	4r	8b	.	.	4r	4r	.	.
.	.	8cc	8a	.	.	.	.	8cc	.	.	.	.	.	.
=33	=33	=33	=33	=33	=33	=33	=33	=33	=33	=33	=33	=33	=33	=33
2.r	4GG	4dd	4b	2d	2GG	2GG	4dd	2dd	2GG	2GG	2ee	2cc	2dd	2g
.	4r	4bb	4dd	.	.	.	4bb	.	.	.	.	.	.	.
.	4D	8aa	8cc	4d	4D	4D	8aa	8cc	4D	4D	4dd	4g	4dd	4dd
.	.	8ff#	8a	.	.	.	8ff#	8a	.	.	.	.	.	.
=34	=34	=34	=34	=34	=34	=34	=34	=34	=34	=34	=34	=34	=34	=34
2r	4GG	4gg	4b	4d	4G	4G	4gg	4b	4G	4G	4cc	4e	4dd	4g
.	2r	4dd	4r	4r	2r	2r	4dd	2r	4r	4r	2r	2r	2r	2r
4ddd	.	4ddd	4bb	8G	.	.	4r	.	8G	8G	.	.	.	.
.	.	.	.	8A	.	.	.	.	8A	8A	.	.	.	.
=35	=35	=35	=35	=35	=35	=35	=35	=35	=35	=35	=35	=35	=35	=35
4ddd	2.r	4ddd	4bb	8B	2.r	2.r	2r	2.r	8B	8B	2.r	2.r	2.r	2.r
.	.	.	.	8c	.	.	.	.	8c	8c	.	.	.	.
4ddd	.	4ddd	4bb	8d	.	.	.	.	8d	8d	.	.	.	.
.	.	.	.	8e	.	.	.	.	8e	8e	.	.	.	.
8ccc	.	8ccc	8aa	8f#	.	.	4d	.	8f#	8f#	.	.	.	.
16bb	.	16bb	16gg	8d	.	.	.	.	8d	8d	.	.	.	.
16ccc	.	16ccc	16aa	.	.	.	.	.	.	.	.	.	.	.
=36	=36	=36	=36	=36	=36	=36	=36	=36	=36	=36	=36	=36	=36	=36
4bb	2.r	4bb	4gg	8g	2.r	2.r	8g	2.r	4g	4g	2.r	2.r	2.r	2.r
.	.	.	.	8f#	.	.	8f#	.	.	.	.	.	.	.
4r	.	4r	4r	8g	.	.	8g	.	2r	2r	.	.	.	.
.	.	.	.	8a	.	.	8a	.	.	.	.	.	.	.
4bb	.	4bb	4dd	8b	.	.	8b	.	.	.	.	.	.	.
.	.	.	.	8g	.	.	8g	.	.	.	.	.	.	.
=37	=37	=37	=37	=37	=37	=37	=37	=37	=37	=37	=37	=37	=37	=37
8aa	2.r	8aa	2.ee	2cc	2.r	2.r	2cc	2.r	2.r	2.r	2.r	2.r	2.r	2.r
8bb	.	8bb	.	.	.	.	.	.	.	.	.	.	.	.
8ccc	.	8ccc	.	.	.	.	.	.	.	.	.	.	.	.
8bb	.	8bb	.	.	.	.	.	.	.	.	.	.	.	.
8aa	.	8aa	.	4cc#	.	.	4cc#	.	.	.	.	.	.	.
8gg	.	8gg	.	.	.	.	.	.	.	.	.	.	.	.
=38	=38	=38	=38	=38	=38	=38	=38	=38	=38	=38	=38	=38	=38	=38
8gg	2.r	8gg	4dd	4dd	2.r	2.r	4dd	2r	2.r	2.r	2.r	2.r	2.r	2.r
8ff#	.	8ff#	.	.	.	.	.	.	.	.	.	.	.	.
8ee	.	8ee	4r	2r	.	.	4r	.	.	.	.	.	.	.
8dd	.	8dd	.	.	.	.	.	.	.	.	.	.	.	.
8b	.	8b	8g	.	.	.	8b	8g	.	.	.	.	.	.
8cc	.	8cc	8a	.	.	.	8cc	8a	.	.	.	.	.	.
=39	=39	=39	=39	=39	=39	=39	=39	=39	=39	=39	=39	=39	=39	=39
4dd	4GG	4dd	4b	2.d	2GG	2GG	4dd	4b	2GG	2GG	2ee	2cc	2dd	2g
4bb	4r	4bb	4dd	.	.	.	4bb	4dd	.	.	.	.	.	.
8aa	4D	8aa	8cc	.	4D	4D	8aa	8cc	4D	4D	4dd	4g	4dd	4dd
8ff#	.	8ff#	8a	.	.	.	8ff#	8a	.	.	.	.	.	.
=40	=40	=40	=40	=40	=40	=40	=40	=40	=40	=40	=40	=40	=40	=40
4gg	4GG	4gg	4b	4d	4G	4G	4gg	4b	4G	4G	4cc	4e	4dd	4g
8ff	2r	8ff	4g 4dd	4g	4B	4B	8ff	4dd	4B	4B	2r	2r	2r	2r
8dd	.	8dd	.	.	.	.	8dd	.	.	.	.	.	.	.
4ee	.	4ee	4e 4cc	4g	4c	4c	4ee	4g	4c	4c	.	.	.	.
=41	=41	=41	=41	=41	=41	=41	=41	=41	=41	=41	=41	=41	=41	=41
8dd	2.r	8dd	4b 4e	4e	4G#	4G#	8dd	4b	4G#	4G#	2.r	2.r	2.r	2.r
8b	.	8b	.	.	.	.	8b	.	.	.	.	.	.	.
4cc	.	4cc	4cc 4e	4e	4A	4A	4cc	4e	4A	4A	.	.	.	.
4r	.	8a	8A	4r	4r	4r	4r	4r	4r	4r	.	.	.	.
.	.	8cc	8c	.	.	.	.	.	.	.	.	.	.	.
=42	=42	=42	=42	=42	=42	=42	=42	=42	=42	=42	=42	=42	=42	=42
2.r	2.r	8ee	8e	2.r	2.r	2.r	2.r	2.r	2.r	2.r	2.r	2.r	2.r	2.r
.	.	8aa	8a	.	.	.	.	.	.	.	.	.	.	.
.	.	8ccc	8cc	.	.	.	.	.	.	.	.	.	.	.
.	.	8bb	8b	.	.	.	.	.	.	.	.	.	.	.
.	.	8aa	8a	.	.	.	.	.	.	.	.	.	.	.
.	.	8gg	8g	.	.	.	.	.	.	.	.	.	.	.
=43	=43	=43	=43	=43	=43	=43	=43	=43	=43	=43	=43	=43	=43	=43
2.dd	4D	8gg	8g	2.a 2.d	2.c	2.c	2.ff#	2.a	2.A	2.F#	2.dd	2.g	2.dd	2.dd
.	.	8ff#	8f#	.	.	.	.	.	.	.	.	.	.	.
.	8D	8ddd	8dd	.	.	.	.	.	.	.	.	.	.	.
.	8D	8ccc	8cc	.	.	.	.	.	.	.	.	.	.	.
.	4D	8bb	8b	.	.	.	.	.	.	.	.	.	.	.
.	.	8aa	8a	.	.	.	.	.	.	.	.	.	.	.
=44	=44	=44	=44	=44	=44	=44	=44	=44	=44	=44	=44	=44	=44	=44
8gg	4GG	8gg	8gg	4b 4d	2.B	2.B	2.gg	2.dd	4B	4G	2ee	2cc	2.dd	2.g
8ff#	.	8ff#	8ff#	.	.	.	.	.	.	.	.	.	.	.
8ee	2r	8ee	8ee	2r	.	.	.	.	2r	2r	.	.	.	.
8dd	.	8dd	8dd	.	.	.	.	.	.	.	.	.	.	.
8cc	.	8cc	8cc	.	.	.	.	.	.	.	4r	4r	.	.
8b	.	8b	8b	.	.	.	.	.	.	.	.	.	.	.
=45	=45	=45	=45	=45	=45	=45	=45	=45	=45	=45	=45	=45	=45	=45
8b	2r	8b	8b	2c	2c	2c	4ee	4ee	2c	2c	2r	2r	2ee	2cc
8a	.	8a	8a	.	.	.	.	.	.	.	.	.	.	.
8cc	.	8cc	8cc	.	.	.	4r	4r	.	.	.	.	.	.
8a	.	8a	8a	.	.	.	.	.	.	.	.	.	.	.
8f#	4D	8f#	8f#	4d	4d	4d	4ff#	4dd	4d	4d	4dd	4g	4dd	4dd
8d	.	8d	8d	.	.	.	.	.	.	.	.	.	.	.
=46	=46	=46	=46	=46	=46	=46	=46	=46	=46	=46	=46	=46	=46	=46
4g	4GG	4g	4g	4G	4G	4G	4gg	4b	4G	4G	4ee	4cc	4dd	4g
4r	2r	4r	4r	2r	4GG	4GG	4r	4r	2r	2r	2r	2r	2r	2r
8b	.	8B	8G	.	4r	4r	8b	8g	.	.	.	.	.	.
8cc	.	8c	8A	.	.	.	8cc	8a	.	.	.	.	.	.
=47	=47	=47	=47	=47	=47	=47	=47	=47	=47	=47	=47	=47	=47	=47
4dd	4GG	4d	4B	4G	4GG	4GG	4dd	4b	4GG	4GG	4cc	4e	4dd	4g
4bb	2r	4b	4g	2r	2r	2r	4r	4r	2r	2r	2r	2r	2r	2r
8b	.	8B	8G	.	.	.	8b	8g	.	.	.	.	.	.
8cc	.	8c	8A	.	.	.	8cc	8a	.	.	.	.	.	.
=48	=48	=48	=48	=48	=48	=48	=48	=48	=48	=48	=48	=48	=48	=48
4dd	4GG	4d	4B	4G	4GG	4GG	4dd	4b	4GG	4GG	4cc	4e	4dd	4g
4ddd	2r	4dd	4b	2r	2r	2r	4r	4r	2r	2r	2r	2r	2r	2r
8b	.	8B	8G	.	.	.	8b	8g	.	.	.	.	.	.
8cc	.	8c	8A	.	.	.	8cc	8a	.	.	.	.	.	.
=49	=49	=49	=49	=49	=49	=49	=49	=49	=49	=49	=49	=49	=49	=49
4dd	4r	4d	4B	4G	4GG	4GG	4dd	4b	4GG	4GG	2ee	2cc	4r	4r
4ggg	4GG	4gg 4b	4gg 4b	4B	4BB	4BB	4gg	4dd	4BB	4BB	.	.	4dd	4dd
4fff#	4D	4ff# 4a	4a 4ff#	4d	4D	4D	4ff#	4cc	4D	4D	4dd	4g	4dd	4dd
=50	=50	=50	=50	=50	=50	=50	=50	=50	=50	=50	=50	=50	=50	=50
4ggg	4GG	4d 4b 4gg	4gg 4b 4d	4g	4G	4G	4gg	4b	4G	4G	4cc	4e	4dd	4g
4r	4r	4r	4r	4r	4r	4r	4r	4r	4r	4r	4r	4r	4r	4r
4r	4r	4r	4r	4r	4r	4r	4r	4r	[4B	[4G	[4ee	[4cc	4r	4r
=51	=51	=51	=51	=51	=51	=51	=51	=51	=51	=51	=51	=51	=51	=51
2.r	2.r	4b 4g	4g 4b	4g	4G	4G	2.r	2.r	4B]	4G]	4ee]	4cc]	2.r	2.r
.	.	2r	2r	2r	2r	2r	.	.	4B	4G	4ee	4cc	.	.
.	.	.	.	.	.	.	.	.	[4A	[4D	[4dd	[4g	.	.
=52	=52	=52	=52	=52	=52	=52	=52	=52	=52	=52	=52	=52	=52	=52
2.r	2.r	4a 4d	4a 4d	4d	4D	4D	2.r	2.r	4A]	4D]	4dd]	4g]	2.r	2.r
.	.	2r	2r	2r	2r	2r	.	.	4A	4D	4dd	4g	.	.
.	.	.	.	.	.	.	.	.	[4G	[4BB	[4cc	[4e	.	.
=53	=53	=53	=53	=53	=53	=53	=53	=53	=53	=53	=53	=53	=53	=53
2.r	2.r	4B 4g	4g 4B	4G	4GG	4GG	2.r	2.r	4G]	4BB]	4cc]	4e]	2.r	2.r
.	.	4r	2r	2r	2r	2r	.	.	4G	4BB	4cc	4e	.	.
.	.	8b	.	.	.	.	.	.	4r	4r	4r	4r	.	.
.	.	8cc	.	.	.	.	.	.	.	.	.	.	.	.
=54	=54	=54	=54	=54	=54	=54	=54	=54	=54	=54	=54	=54	=54	=54
2.r	2.r	8dd	2b	[2.g	[2.g	2.r	2.r	2.r	2.r	2.r	2.r	2.r	2.r	2.r
.	.	8ee	.	.	.	.	.	.	.	.	.	.	.	.
.	.	8ff#	.	.	.	.	.	.	.	.	.	.	.	.
.	.	8gg	.	.	.	.	.	.	.	.	.	.	.	.
.	.	8ff#	4cc	.	.	.	.	.	.	.	.	.	.	.
.	.	8ee	.	.	.	.	.	.	.	.	.	.	.	.
=55	=55	=55	=55	=55	=55	=55	=55	=55	=55	=55	=55	=55	=55	=55
2.r	2.r	8dd	2b	2.g_	2.g_	2.r	2.r	2.r	2.r	2.r	2.r	2.r	2.r	2.r
.	.	8bb	.	.	.	.	.	.	.	.	.	.	.	.
.	.	8aa	.	.	.	.	.	.	.	.	.	.	.	.
.	.	8gg	.	.	.	.	.	.	.	.	.	.	.	.
.	.	8ff#	4cc	.	.	.	.	.	.	.	.	.	.	.
.	.	8ee	.	.	.	.	.	.	.	.	.	.	.	.
=56	=56	=56	=56	=56	=56	=56	=56	=56	=56	=56	=56	=56	=56	=56
2.r	2.r	4dd	4b	4g]	4g]	2.r	2.r	2.r	2r	2r	2r	2r	2.r	2.r
.	.	2r	2r	2r	2r	.	.	.	.	.	.	.	.	.
.	.	.	.	.	.	.	.	.	[4B	[4G	[4ee	[4cc	.	.
=57	=57	=57	=57	=57	=57	=57	=57	=57	=57	=57	=57	=57	=57	=57
2.r	2.r	4dd 4b	4g 4b	4g	4G	4G	2.r	2.r	4B]	4G]	4ee]	4cc]	2.r	2.r
.	.	2r	2r	2r	2r	2r	.	.	4B	4G	4ee	4cc	.	.
.	.	.	.	.	.	.	.	.	[4A	[4D	[4dd	[4g	.	.
=58	=58	=58	=58	=58	=58	=58	=58	=58	=58	=58	=58	=58	=58	=58
2.r	2.r	4a 4d	4a 4d	4d	4D	4D	2.r	2.r	4A]	4D]	4dd]	4g]	2.r	2.r
.	.	2r	2r	2r	2r	2r	.	.	4A	4D	4dd	4g	.	.
.	.	.	.	.	.	.	.	.	[4G	[4BB	[4cc	[4e	.	.
=59	=59	=59	=59	=59	=59	=59	=59	=59	=59	=59	=59	=59	=59	=59
2.r	2.r	4B 4g	4B 4g	4G	4GG	4GG	2r	2.r	4G]	4BB]	4cc]	4e]	2.r	2.r
.	.	4r	2r	2r	2r	2r	.	.	4G	4BB	4cc	4e	.	.
.	.	8b	.	.	.	.	8b	.	4r	4r	4r	4r	.	.
.	.	8cc	.	.	.	.	8cc	.	.	.	.	.	.	.
=60	=60	=60	=60	=60	=60	=60	=60	=60	=60	=60	=60	=60	=60	=60
2.r	2.r	8dd	2b	[2.g	[2.g	2.r	8dd	2.r	2.r	2.r	2.r	2.r	2.r	2.r
.	.	8ee	.	.	.	.	8ee	.	.	.	.	.	.	.
.	.	8ff#	.	.	.	.	8ff#	.	.	.	.	.	.	.
.	.	8gg	.	.	.	.	8gg	.	.	.	.	.	.	.
.	.	8ff#	4cc	.	.	.	8ff#	.	.	.	.	.	.	.
.	.	8ee	.	.	.	.	8ee	.	.	.	.	.	.	.
=61	=61	=61	=61	=61	=61	=61	=61	=61	=61	=61	=61	=61	=61	=61
2.r	2.r	8dd	2.b	2.g]	2.g]	2.r	8dd	2.r	2.r	2.r	2.r	2.r	2.r	2.r
.	.	8bb	.	.	.	.	8bb	.	.	.	.	.	.	.
.	.	8aa	.	.	.	.	8aa	.	.	.	.	.	.	.
.	.	8gg	.	.	.	.	8gg	.	.	.	.	.	.	.
.	.	8ff#	.	.	.	.	8ff#	.	.	.	.	.	.	.
.	.	8ee	.	.	.	.	8ee	.	.	.	.	.	.	.
=62	=62	=62	=62	=62	=62	=62	=62	=62	=62	=62	=62	=62	=62	=62
2.r	2.r	4dd#	2.a	2.f#	2.f#	2.B	4dd#	2.r	2.r	2.r	2.r	2.r	2.r	2.r
.	.	4dd#	.	.	.	.	4dd#	.	.	.	.	.	.	.
.	.	[4bb	.	.	.	.	[4bb	.	.	.	.	.	.	.
=63	=63	=63	=63	=63	=63	=63	=63	=63	=63	=63	=63	=63	=63	=63
2.r	2.r	4bb]	2g	[2.g	[2.g	2.E	4bb]	2.r	2.r	2.r	2.r	2.r	2.r	2.r
.	.	4bb	.	.	.	.	4bb	.	.	.	.	.	.	.
.	.	[4ee	4r	.	.	.	[4ee	.	.	.	.	.	.	.
=64	=64	=64	=64	=64	=64	=64	=64	=64	=64	=64	=64	=64	=64	=64
2.r	2.r	4ee]	2.c#	2.g]	2.g]	2.A	4ee]	2.r	2.r	2.r	2.r	2.r	2.r	2.r
.	.	4ee	.	.	.	.	4ee	.	.	.	.	.	.	.
.	.	4aa	.	.	.	.	4aa	.	.	.	.	.	.	.
=65	=65	=65	=65	=65	=65	=65	=65	=65	=65	=65	=65	=65	=65	=65
2.r	2.r	4dd	4d	4f#	4f#	4d	4dd	2.r	2.r	2.r	2.r	2.r	2.r	2.r
.	.	2aa	2c#	2g	2g	2A	2aa	.	.	.	.	.	.	.
=66	=66	=66	=66	=66	=66	=66	=66	=66	=66	=66	=66	=66	=66	=66
2r	2r	4dd	4d	4f#	4f#	4d	4dd	2r	2r	2r	2r	2r	2r	2r
.	.	4r	4r	4r	4r	4r	4r	.	.	.	.	.	.	.
4r	4r	4r	4r	[4dd	[4d	[4d	4r	4r	[4d	[4d	4r	4r	4r	4r
=67	=67	=67	=67	=67	=67	=67	=67	=67	=67	=67	=67	=67	=67	=67
4dd	2.r	4f# 4dd	4dd 4f#	4dd]	4d]	4d]	4dd	4f#	4d]	4d]	4g	4g	2.r	2.r
2r	.	2r	2r	4dd	4d	4d	2r	2r	4d	4d	2r	2r	.	.
.	.	.	.	[4cc#	[4c#	[4c#	.	.	[4c#	[4c#	.	.	.	.
=68	=68	=68	=68	=68	=68	=68	=68	=68	=68	=68	=68	=68	=68	=68
4ee	2.r	4ee 4a	4ee 4a	4cc#]	4c#]	4c#]	4ee	4a	4c#]	4c#]	4cc	4cc	2.r	2.r
2r	.	2r	2r	4cc#	4c#	4c#	2r	2r	4c#	4c#	2r	2r	.	.
.	.	.	.	[4cc	[4c	[4c	.	.	[4c	[4c	.	.	.	.
=69	=69	=69	=69	=69	=69	=69	=69	=69	=69	=69	=69	=69	=69	=69
4ff#	2.r	4a 4ff# 4d	4ff# 4d 4a	4cc]	4c]	4c]	4ff#	4dd	4c]	4c]	4dd	4g	2.r	2.r
2r	.	2r	2r	4cc	4c	4c	2r	2r	4c	4c	2r	2r	.	.
.	.	.	.	[4b	[4B	[4B	.	.	[4B	[4B	.	.	.	.
=70	=70	=70	=70	=70	=70	=70	=70	=70	=70	=70	=70	=70	=70	=70
4gg	2.r	4gg 4b 4d	4gg 4b 4d	4b]	4B]	4B]	4gg	4dd	4B]	4B]	4ee	4cc	2.r	2.r
2r	.	4r	4r	4b	4B	4B	2r	2r	4B	4B	2r	2r	.	.
.	.	[4ccc	[4aa	[4f#	[4F#	[4F#	.	.	[4F#	[4F#	.	.	.	.
=71	=71	=71	=71	=71	=71	=71	=71	=71	=71	=71	=71	=71	=71	=71
2ccc	2.r	4ccc]	4aa]	4f#]	4F#]	4F#]	2aa	[2.dd	4F#]	4F#]	2dd	2g	2.r	2.r
.	.	4ccc	4aa	4f#	4F#	4F#	.	.	4F#	4F#	.	.	.	.
4bb	.	4bb	4gg	4g	4G	4G	4bb	.	4G	4G	4ee	4cc	.	.
=72	=72	=72	=72	=72	=72	=72	=72	=72	=72	=72	=72	=72	=72	=72
4aa	2.r	4aa	4ff#	4d	4D	4D	4aa	4dd]	4D	4D	2dd	4g	2.r	2.r
2bb	.	2bb	2gg	4r	4r	4r	4r	4r	4r	4r	.	4r	.	.
.	.	.	.	[4dd	[4d	[4d	4bb	4gg	[4d	[4d	4ee	4cc	.	.
=73	=73	=73	=73	=73	=73	=73	=73	=73	=73	=73	=73	=73	=73	=73
4aa	2.r	4aa	4ff#	4dd]	4d]	4d]	4aa	4ff#	4d]	4d]	2dd	4g	2.r	2.r
2bb	.	2bb	2gg	4d	4D	4D	4r	4r	4D	4D	.	4r	.	.
.	.	.	.	[4dd	[4d	[4d	4bb	4gg	[4d	[4d	4ee	4cc	.	.
=74	=74	=74	=74	=74	=74	=74	=74	=74	=74	=74	=74	=74	=74	=74
4aa	2.r	4aa	4ff#	4dd]	4d]	4d]	4aa	4ff#	4d]	4d]	4dd	4g	2.r	2.r
2ddd	.	2ddd	4r	4d	4D	4D	2r	2r	4D	4D	2r	2r	.	.
.	.	.	[4gg	[4ee	[4e	[4e	.	.	[4e	[4e	.	.	.	.
=75	=75	=75	=75	=75	=75	=75	=75	=75	=75	=75	=75	=75	=75	=75
4gg	2.r	4gg	4gg]	4ee]	4e]	4e]	2.r	2.r	4e]	4e]	2.r	2.r	2.r	2.r
2ccc	.	2ccc	4g	4e	4E	4E	.	.	4E	4E	.	.	.	.
.	.	.	[4ff#	[4dd	[4d	[4d	.	.	[4d	[4d	.	.	.	.
=76	=76	=76	=76	=76	=76	=76	=76	=76	=76	=76	=76	=76	=76	=76
4ff#	2.r	4ff#	4ff#]	4dd]	4d]	4d]	2.r	2.r	4d]	4d]	2.r	2.r	2.r	2.r
2bb	.	2bb	4f#	4d	4D	4D	.	.	4D	4D	.	.	.	.
.	.	.	[4ee	[4cc	[4c	[4c	.	.	[4c	[4c	.	.	.	.
=77	=77	=77	=77	=77	=77	=77	=77	=77	=77	=77	=77	=77	=77	=77
4ee	2.r	4ee	4ee]	4cc]	4c]	4c]	2.r	2.r	4c]	4c]	2.r	2.r	2.r	2.r
2aa	.	2aa	4e	4c	4C	4C	.	.	4C	4C	.	.	.	.
.	.	.	[4dd	[4b	[4B	[4B	.	.	[4B	[4B	.	.	.	.
=78	=78	=78	=78	=78	=78	=78	=78	=78	=78	=78	=78	=78	=78	=78
4dd	2.r	4dd	4dd]	4b]	4B]	4B]	2.r	2.r	4B]	4B]	2.r	2.r	2.r	2.r
2gg	.	2gg	4d	4B	4BB	4BB	.	.	4BB	4BB	.	.	.	.
.	.	.	4d	4d	[4B-	[4B-	.	.	[4B-	[4B-	.	.	.	.
=79	=79	=79	=79	=79	=79	=79	=79	=79	=79	=79	=79	=79	=79	=79
4cc#	2.r	4cc#	[2.e	[2.g	4B-]	4B-]	4cc#	4g	4B-]	4B-]	2.r	2.r	2.r	2.r
4cc#	.	4cc#	.	.	4A	4A	2r	2r	4A	4A	.	.	.	.
4gg	.	4gg	.	.	[4A	[4A	.	.	[4A	[4A	.	.	.	.
=80	=80	=80	=80	=80	=80	=80	=80	=80	=80	=80	=80	=80	=80	=80
4cc#	2.r	4cc#	2.e]	2.g]	4A]	4A]	4cc#	4g	4A]	4A]	2.r	2.r	2.r	2.r
4cc#	.	4cc#	.	.	4G	4G	2r	2r	4G	4G	.	.	.	.
4aa	.	4aa	.	.	[4G	[4G	.	.	[4G	[4G	.	.	.	.
=81	=81	=81	=81	=81	=81	=81	=81	=81	=81	=81	=81	=81	=81	=81
4dd	2.r	4dd	4a	2d	4G]	4G]	4dd	4a	4G]	4G]	2.r	2.r	2.r	2.r
4dd	.	4dd	4d 4a	.	4F#	4F#	2r	2r	4F#	4F#	.	.	.	.
[4ccc	.	[4ccc	4a 4d	4r	4F#	4F#	.	.	4F#	4F#	.	.	.	.
=82	=82	=82	=82	=82	=82	=82	=82	=82	=82	=82	=82	=82	=82	=82
4ccc]	2.r	4ccc]	4a 4d	4d	4F#	4F#	4ccc	4aa	4F#	4F#	4dd	4g	2.r	2.r
4ff#	.	4ff#	2r	2r	2r	2r	2r	2r	2r	2r	2r	2r	.	.
[4aa	.	[4aa	.	.	.	.	.	.	.	.	.	.	.	.
=83	=83	=83	=83	=83	=83	=83	=83	=83	=83	=83	=83	=83	=83	=83
4aa]	2.r	4aa]	4aa 4cc 4d	4D	4F#	4F#	4ccc	4aa	4F#	4F#	4dd	4g	2.r	2.r
4cc	.	4cc	2r	2r	2r	2r	2r	2r	2r	2r	2r	2r	.	.
[4ee	.	[4ee	.	.	.	.	.	.	.	.	.	.	.	.
=84	=84	=84	=84	=84	=84	=84	=84	=84	=84	=84	=84	=84	=84	=84
4ee]	2.r	4ee]	4d 4cc 4aa	4D	4F#	4F#	4ccc	4aa	4F#	4F#	4dd	4g	2.r	2.r
4a	.	4a	2r	2r	2r	2r	2r	2r	2r	2r	2r	2r	.	.
[4cc	.	[4cc	.	.	.	.	.	.	.	.	.	.	.	.
=85	=85	=85	=85	=85	=85	=85	=85	=85	=85	=85	=85	=85	=85	=85
4cc]	2.r	4cc]	4aa 4cc 4d	4D	4F#	4F#	4ccc	4aa	4F#	4F#	4dd	4g	2.r	2.r
4d	.	4d	2r	2r	2r	2r	2r	2r	2r	2r	2r	2r	.	.
4r	.	4r	.	.	.	.	.	.	.	.	.	.	.	.
=86	=86	=86	=86	=86	=86	=86	=86	=86	=86	=86	=86	=86	=86	=86
2.r	2.r	2.r	2.r	2.r	2.r	2.r	2.r	2.r	2r	2r	2r	2r	2.r	2.r
.	.	.	.	.	.	.	.	.	[4B	[4G	[4ee	[4cc	.	.
=87	=87	=87	=87	=87	=87	=87	=87	=87	=87	=87	=87	=87	=87	=87
2.r	2.r	4b 4g	4b 4g	2.r	4G	4G	2.r	2.r	4B]	4G]	4ee]	4cc]	2.r	2.r
.	.	2r	2r	.	2r	2r	.	.	4B	4G	4ee	4cc	.	.
.	.	.	.	.	.	.	.	.	[4A	[4D	[4dd	[4g	.	.
=88	=88	=88	=88	=88	=88	=88	=88	=88	=88	=88	=88	=88	=88	=88
2.r	2.r	4a 4d	4a 4d	2.r	4D	4D	2.r	2.r	4A]	4D]	4dd]	4g]	2.r	2.r
.	.	2r	2r	.	2r	2r	.	.	4A	4D	4dd	4g	.	.
.	.	.	.	.	.	.	.	.	[4G	[4BB	[4cc	[4e	.	.
=89	=89	=89	=89	=89	=89	=89	=89	=89	=89	=89	=89	=89	=89	=89
2r	2.r	4g 4B	4g 4B	2.r	4GG	4GG	2.r	2.r	4G]	4BB]	4cc]	4e]	2.r	2.r
.	.	4r	2r	.	2r	2r	.	.	4G	4BB	4cc	4e	.	.
8b	.	8b	.	.	.	.	.	.	4r	4r	4r	4r	.	.
8cc	.	8cc	.	.	.	.	.	.	.	.	.	.	.	.
=90	=90	=90	=90	=90	=90	=90	=90	=90	=90	=90	=90	=90	=90	=90
8dd	2.r	8dd	2b	2.r	[2.g	2.r	2.r	2.r	2.r	2.r	2.r	2.r	2.r	2.r
8ee	.	8ee	.	.	.	.	.	.	.	.	.	.	.	.
8ff#	.	8ff#	.	.	.	.	.	.	.	.	.	.	.	.
8gg	.	8gg	.	.	.	.	.	.	.	.	.	.	.	.
8ff#	.	8ff#	4cc	.	.	.	.	.	.	.	.	.	.	.
8ee	.	8ee	.	.	.	.	.	.	.	.	.	.	.	.
=91	=91	=91	=91	=91	=91	=91	=91	=91	=91	=91	=91	=91	=91	=91
8dd	2.r	8dd	2b	2.r	2.g_	2.r	2.r	2.r	2.r	2.r	2.r	2.r	2.r	2.r
8bb	.	8bb	.	.	.	.	.	.	.	.	.	.	.	.
8aa	.	8aa	.	.	.	.	.	.	.	.	.	.	.	.
8gg	.	8gg	.	.	.	.	.	.	.	.	.	.	.	.
8ff#	.	8ff#	4cc	.	.	.	.	.	.	.	.	.	.	.
8ee	.	8ee	.	.	.	.	.	.	.	.	.	.	.	.
=92	=92	=92	=92	=92	=92	=92	=92	=92	=92	=92	=92	=92	=92	=92
4dd	2.r	4dd	4b	2.r	4g]	2.r	2.r	2.r	2r	2r	2r	2r	2.r	2.r
2r	.	2r	2r	.	2r	.	.	.	.	.	.	.	.	.
.	.	.	.	.	.	.	.	.	[4B	[4G	[4ee	[4cc	.	.
=93	=93	=93	=93	=93	=93	=93	=93	=93	=93	=93	=93	=93	=93	=93
2.r	2.r	4g 4b	4g 4b	2.r	4G	4G	2.r	2.r	4B]	4G]	4ee]	4cc]	2.r	2.r
.	.	2r	2r	.	2r	2r	.	.	4B	4G	4ee	4cc	.	.
.	.	.	.	.	.	.	.	.	[4A	[4D	[4dd	[4g	.	.
=94	=94	=94	=94	=94	=94	=94	=94	=94	=94	=94	=94	=94	=94	=94
2r	2.r	4a 4d	4a 4d	2r	4D	4D	2r	2r	4A]	4D]	4dd]	4g]	2.r	2.r
.	.	2r	2r	.	2r	2r	.	.	4A	4D	4dd	4g	.	.
8g	.	.	.	8g	.	.	[4ddd	[4bb	[4G	[4BB	[4cc	[4e	.	.
8a	.	.	.	8a	.	.	.	.	.	.	.	.	.	.
=95	=95	=95	=95	=95	=95	=95	=95	=95	=95	=95	=95	=95	=95	=95
8b	2.r	4B 4g	4g 4B	8b	4GG	4GG	4ddd]	4bb]	4G]	4BB]	4cc]	4e]	2.r	2.r
8cc	.	.	.	8cc	.	.	.	.	.	.	.	.	.	.
4dd	.	2r	2r	4dd	2r	2r	4ddd	4bb	4G	4BB	4cc	4e	.	.
8d	.	.	.	8d	.	.	[4ccc	[4aa	4r	4r	4r	4r	.	.
8e	.	.	.	8e	.	.	.	.	.	.	.	.	.	.
=96	=96	=96	=96	=96	=96	=96	=96	=96	=96	=96	=96	=96	=96	=96
8f#	2.r	2r	2r	8f#	2r	2r	4ccc]	4aa]	2.r	2.r	2.r	2.r	2.r	2.r
8g	.	.	.	8g	.	.	.	.	.	.	.	.	.	.
4a	.	.	.	4a	.	.	4ccc	4aa	.	.	.	.	.	.
4r	.	[4dd	[4b	4r	8G	8G	[4bb	[4gg	.	.	.	.	.	.
.	.	.	.	.	8A	8A	.	.	.	.	.	.	.	.
=97	=97	=97	=97	=97	=97	=97	=97	=97	=97	=97	=97	=97	=97	=97
2.r	2.r	4dd]	4b]	2.r	8B	8B	4bb]	4gg]	2.r	2.r	2.r	2.r	2.r	2.r
.	.	.	.	.	8c	8c	.	.	.	.	.	.	.	.
.	.	4dd	4b	.	4d	4d	4bb	4gg	.	.	.	.	.	.
.	.	[4cc	[4a	.	8D	8D	4r	4r	.	.	.	.	.	.
.	.	.	.	.	8E	8E	.	.	.	.	.	.	.	.
=98	=98	=98	=98	=98	=98	=98	=98	=98	=98	=98	=98	=98	=98	=98
2r	2.r	4cc]	4a]	2.r	8F#	8F#	2.r	2.r	2.r	2.r	2.r	2.r	2.r	2.r
.	.	.	.	.	8G	8G	.	.	.	.	.	.	.	.
.	.	4cc	4a	.	4A	4A	.	.	.	.	.	.	.	.
8gg	.	[4b	[4g	.	4r	4r	.	.	.	.	.	.	.	.
8aa	.	.	.	.	.	.	.	.	.	.	.	.	.	.
=99	=99	=99	=99	=99	=99	=99	=99	=99	=99	=99	=99	=99	=99	=99
8bb	2.r	4b]	4g]	2.r	2.r	2.r	2.r	2.r	2.r	2.r	2.r	2.r	2.r	2.r
8ccc	.	.	.	.	.	.	.	.	.	.	.	.	.	.
4ddd	.	4b	4g	.	.	.	.	.	.	.	.	.	.	.
4r	.	4r	4r	.	.	.	.	.	.	.	.	.	.	.
=100	=100	=100	=100	=100	=100	=100	=100	=100	=100	=100	=100	=100	=100	=100
2r	2.r	2r	2r	2r	2r	2r	2r	2r	2r	2r	2.r	2.r	2.r	2.r
8eee	.	[4cc 4aa	[4aa 4cc	[4cc	[4c	[4c	8ee	8ee	[4c	[4c	.	.	.	.
8ddd	.	.	.	.	.	.	8dd	8dd	.	.	.	.	.	.
=101	=101	=101	=101	=101	=101	=101	=101	=101	=101	=101	=101	=101	=101	=101
8ccc	2.r	4cc 4aa]	4aa 4cc]	4cc]	4c]	4c]	8cc	8cc	4c]	4c]	2.r	2.r	2.r	2.r
8bb	.	.	.	.	.	.	8b	8b	.	.	.	.	.	.
4aa	.	4aa 4cc	4aa 4cc	4cc	4c	4c	4a	4a	4c	4c	.	.	.	.
8ddd	.	[4b 4gg	[4gg 4b	[4dd	[4d	[4d	8dd	8dd	[4d	[4d	.	.	.	.
8ccc	.	.	.	.	.	.	8cc	8cc	.	.	.	.	.	.
=102	=102	=102	=102	=102	=102	=102	=102	=102	=102	=102	=102	=102	=102	=102
8bb	2.r	4b 4gg]	4gg 4b]	4dd]	4d]	4d]	8b	8b	4d]	4d]	2r	2r	2.r	2.r
8aa	.	.	.	.	.	.	8a	8a	.	.	.	.	.	.
8gg	.	4gg 4b	4gg 4b	4dd	4d	4d	8g	8g	4d	4d	.	.	.	.
8bb	.	.	.	.	.	.	8b	8b	.	.	.	.	.	.
8aa	.	4ff# 4a	4a 4ff#	4d	4D	4D	8a	8a	4D	4D	4dd	4g	.	.
8ff#	.	.	.	.	.	.	8f#	8f#	.	.	.	.	.	.
=103	=103	=103	=103	=103	=103	=103	=103	=103	=103	=103	=103	=103	=103	=103
4gg	2.r	4b 4gg	4gg 4b	4g	4G	4G	4g	4g	4G	4G	4cc	4e	2.r	2.r
4dd	.	4dd	4dd	4b	4G	4G	4b	4b	4G	4G	4cc	4e	.	.
4bb	.	4bb	4bb	4dd	4G	4G	4dd	4dd	4G	4G	4cc	4e	.	.
=104	=104	=104	=104	=104	=104	=104	=104	=104	=104	=104	=104	=104	=104	=104
4gg	2.r	4gg	4gg	4g	4G	4G	4gg	4b	4G	4G	4cc	4e	2.r	2.r
2r	.	2r	2r	2r	2r	2r	2r	2r	2r	2r	2r	2r	.	.
==	==	==	==	==	==	==	==	==	==	==	==	==	==	==
*-	*-	*-	*-	*-	*-	*-	*-	*-	*-	*-	*-	*-	*-	*-
!!!RWG1: This file contains only pitch and duration data.
!!!RWG2: Transposing instruments are not transposed.
!!!RWG3: Spines may have incompatible meters.
!!!RWG4: Durations of rests and tied notes may be interpreted.
!!!RWG: Key is interpreted using the Humdrum key tool.
!!!OPT: Oxford
!!!AFT: stage1
!!!END: 1997/04/15
!!format changes:
!!content changes:
!!public access: complete
!!!KEY: 3094372437
!!!EMD: Converted from MuseData to Humdrum Dec 16, 2000, by Andreas Kornstaedt using muse2kern.
